!!!!SEGMENT: pl-sa--79-a-ii-19--001-019_siwinski-andrzej--missa-pro-defunctis-agnus-dei.krn
!!!cenid: 17xx:311
!!!COM: Siwiński, Andrzej
!!!COM-rismID: pe41011487
!!!CDT: <1725->1725
!!!CNT:
!!!OPR: Missa pro defunctis
!!!OTL: Agnus Dei
!!!OMV: 019
!!!PDT: 1726
!!!AGN: Sacred; Mass
!!!YEC: Copyright 2022 Narodowy Instytut Fryderyka Chopina (https://polishscores.org)
!!!YEM: License CC-BY-4.0 (https://creativecommons.org/licenses/by/4.0)
!!!SMS-siglum: PL-SA
!!!SMS-shelfmark: 79/A II 19
!!!SMS-shelfwork: 001-019 M
!!!NIFC-rismSourceID: 1001070177
!!!NIFC-rismChildID: 1001070177
!!!NIFC-islandoraID: none
!!!URL-pdf-islandora:
!!!URL-scan: https://bc.bdsandomierz.pl/dlibra/publication/1356/edition/1324/content @EN{Scan in the Sandomierz Diocese Digital Library} @PL{Skany w portalu Cyfrowa Biblioteka Diecezjalna w Sandomierzu}
!!!IIIF:
!!!ONB-nifc: Uwaga: części Mszy: Requiem, Kyrie, Dies Irae, Quantus tremor, Tuba mirrum, Mors, Quid sum miser, Rex tremende, Quaerens me, Iuste iudex, Oro supplex, Pie Iesu Domine, Domine Iesu Christe,Quam olim Abrahae, Hostias, Sanctus, Osanna, Benedictus, Agnus Dei
!!!AIN: 1 alto 3 empty 2 oboe 2 violn
!!!key:
**kern	**fba	**kern	**kern	**kern	**text	**kern	**text	**kern	**text	**kernyy	**text	**kern	**kern
*group4	*	*group3	*group3	*group2	*	*group2	*	*group2	*	*group2	*	*group1	*group1
*part9	*	*part8	*part7	*part6	*	*part5	*	*part4	*	*part3	*	*part2	*part1
*staff9	*	*staff8	*staff7	*staff6	*	*staff5	*	*staff4	*	*staff3	*	*staff2	*staff1
*Iempty	*	*Ivioln	*Ivioln	*Iempty	*	*Iempty	*	*Ialto	*	*	*	*Ioboe	*Ioboe
*I"P9	*	*I"Violino. 2do	*I"Violino 1mo	*I"P6	*	*I"P5	*	*I"Alto.	*	*I"Canto.	*	*I"Hobois 2do	*I"Hautbo. 1mo.
*I'org	*	*I'vn II	*I'vn I	*I'B	*	*I'T	*	*I'A	*	*I'C	*	*I'ob II	*I'ob I
*clefF4	*	*clefG2	*clefG2	*clefF4	*	*clefC4	*	*clefC3	*	*clefC1	*	*clefG2	*clefG2
*k[b-e-]	*	*k[b-e-]	*k[b-e-]	*k[b-e-]	*	*k[b-e-]	*	*k[b-e-]	*	*k[b-e-]	*	*k[b-e-]	*k[b-e-]
*c:dor	*	*c:dor	*c:dor	*c:dor	*	*c:dor	*	*c:dor	*	*c:dor	*	*c:dor	*c:dor
*M2/2	*	*M2/2	*M2/2	*M2/2	*	*M2/2	*	*M2/2	*	*M2/2	*	*M2/2	*M2/2
*met(c|)	*	*met(c|)	*met(c|)	*met(c|)	*	*met(c|)	*	*met(c|)	*	*met(c|)	*	*met(c|)	*met(c|)
=1	=1	=1	=1	=1	=1	=1	=1	=1	=1	=1	=1	=1	=1
!LO:TX:a:i:t=ʃolo	!	!	!	!	!	!	!	!	!	!	!	!	!
!LO:TX:b:t=Agnus. Canto.	!	!	!LO:TX:b:t=Canti	!LO:TX:b:t=C	!	!	!	!	!	!	!	!	!
!LO:TX:a:t=P:problem=mixed beam	!	!	!LO:TX:a:t=5	!LO:TX:a:t=1	!	!LO:TX:a:t=P:problem=brak nazwy partii (na stronie tytułowej "Tenore")	!	!	!	!	!	!	!
!LO:TX:a:t=P:problem=brak nazwy partii (na stronie tytułowej "Baſso pro Organo")	!	!LO:TX:b:t=Agnuſ	!LO:TX:a:t=Agnus Dei	!LO:TX:a:t=P:problem=brak nazwy partii (na stronie tytułowej "Baſso vocali")	!	!LO:TX:b:t=Agnus C.	!	!LO:TX:b:t=Agnus dei	!	!LO:TX:a:t=ʃolo	!	!LO:TX:b:t=Agnus. C.	!LO:TX:b:t=Agnus Dei.
8C/L	.	00r	00r	1r	.	1r	.	1r	.	4cc\	A-	00r	00r
8c\	.	.	.	.	.	.	.	.	.	.	.	.	.
8Bn\	6	.	.	.	.	.	.	.	.	4dd\	-gnus	.	.
8G\J	.	.	.	.	.	.	.	.	.	.	.	.	.
!LO:TX:a:t=P:problem=mixed beam	!	!	!	!	!	!	!	!	!	!	!	!	!
*	*	*	*	*	*	*	*	*	*	*	*ij	*	*
8c\L	.	.	.	.	.	.	.	.	.	4ee-\	A-	.	.
8C/	.	.	.	.	.	.	.	.	.	.	.	.	.
8BBn/	6	.	.	.	.	.	.	.	.	4dd\	-gnus	.	.
8GG/J	.	.	.	.	.	.	.	.	.	.	.	.	.
*	*	*	*	*	*	*	*	*	*	*	*Xij	*	*
=2	=2	=2	=2	=2	=2	=2	=2	=2	=2	=2	=2	=2	=2
!LO:TX:a:t=P:problem=mixed beam	!	!	!	!	!	!	!	!	!	!	!	!	!
8C\L	.	.	.	2r	.	2r	.	2r	.	8cc\L	De-	.	.
8F\	.	.	.	.	.	.	.	.	.	16dd\L	.	.	.
.	.	.	.	.	.	.	.	.	.	16ee-\JJ	.	.	.
8G\	.	.	.	.	.	.	.	.	.	4bn\	.	.	.
8GG/J	.	.	.	.	.	.	.	.	.	.	.	.	.
4C/	.	.	.	4r	.	4r	.	4r	.	4cc\	-i	.	.
!LO:TX:b:t=A.T.B.	!	!	!	!	!	!	!	!	!	!	!	!	!
4c\	.	.	.	4c\	Qui	4e-\	Qui	4g\	Qui	4r	.	.	.
=3	=3	=3	=3	=3	=3	=3	=3	=3	=3	=3	=3	=3	=3
8Bn\L	6	.	.	4Bn\	tol-	4d\	tol-	4g\	tol-	0r	.	.	.
8A\	.	.	.	.	.	.	.	.	.	.	.	.	.
8B\	6	.	.	8B\	-lis	8d\	-lis	8g\	-lis	.	.	.	.
8G\J	.	.	.	8G\	pec-	8d\	pec-	8g\	pec-	.	.	.	.
8c\L	.	.	.	8c\	-ca-	8e-\	-ca-	8g\	-ca-	.	.	.	.
8B-X\J	.	.	.	8B-X\	-ta	8d\	-ta	8f\	-ta	.	.	.	.
4A-X\	7	.	.	4A-X\	mun-	4c\	mu(n)-	(8e-\L	mun-	.	.	.	.
.	6	.	.	.	.	.	.	8f\J)	.	.	.	.	.
=4	=4	=4	=4	=4	=4	=4	=4	=4	=4	=4	=4	=4	=4
4G\	.	.	.	4G\	-di	4Bn\	-di	4g\	-di	.	.	.	.
8C/L	.	.	.	8C/	do-	8e-\	do-	8g\	do-	.	.	.	.
8C/J	.	.	.	8C/	-na	8e-\	-na	8g\	-na	.	.	.	.
8F\L	.	.	.	8F\L	e-	4c\	e-	4a-X\	e-	.	.	.	.
8G\	.	.	.	8G\	.	.	.	.	.	.	.	.	.
8A-X\	.	.	.	8A-X\J	.	4c\	-is	4a-\	-is	.	.	.	.
8F\J	.	.	.	8F\	-is	.	.	.	.	.	.	.	.
=5	=5	=5	=5	=5	=5	=5	=5	=5	=5	=5	=5	=5	=5
!LO:TX:a:t=P:problem=mixed beam	!	!	!	!	!	!	!	!	!	!	!	!	!
8G\L	.	1r	1r	4.G\	Re-	4.d\	Re-	4.g\	Re-	1r	.	1r	1r
8F\	.	.	.	.	.	.	.	.	.	.	.	.	.
8G\	.	.	.	.	.	.	.	.	.	.	.	.	.
.	4	.	.	.	.	.	.	.	.	.	.	.	.
8GG/J	3	.	.	8G\	-qui-	8d\	-qui-	8g\	-qui-	.	.	.	.
!	!	!	!	!LO:TX:a:i:t=Finis	!	!LO:TX:a:i:t=Finis	!	!	!	!	!	!	!
2C/	.	.	.	2C/	-em	2c\	-em	2g\	-em	.	.	.	.
!LO:LB:g=original	!	!	!	!LO:LB:g=original	!	!LO:LB:g=original	!	!	!	!	!	!	!
=6||	=6||	=6||	=6||	=6||	=6||	=6||	=6||	=6||	=6||	=6||	=6||	=6||	=6||
*	*	*M2/2	*M2/2	*M2/2	*	*M2/2	*	*M2/2	*	*M2/2	*	*M2/2	*M2/2
*	*	*met(c|)	*met(c|)	*met(c|)	*	*met(c|)	*	*met(c|)	*	*met(c|)	*	*met(c|)	*met(c|)
!	!	!	!LO:TX:b:t=C.	!	!	!LO:TX:a:t=Agnus	!	!	!	!	!	!	!
!LO:TX:a:t=P:problem=mixed beam	!	!LO:TX:b:t=agnuſ	!LO:TX:a:t=5	!	!	!LO:TX:a:t=P:problem=brak nazwy partii (na stronie tytułowej "Tenore")	!	!	!	!	!	!LO:TX:b:t=Agnus	!LO:TX:b:t=Agnus. C.
8GG/L	.	00r	00r	1r	.	1r	.	1r	.	4g\	A-	00r	00r
8G\	.	.	.	.	.	.	.	.	.	.	.	.	.
8F#X\	6	.	.	.	.	.	.	.	.	4a\	-gnus	.	.
8D\J	.	.	.	.	.	.	.	.	.	.	.	.	.
*	*	*	*	*	*	*	*	*	*	*	*ij	*	*
8G\L	.	.	.	.	.	.	.	.	.	4b-\	A-	.	.
8G\	.	.	.	.	.	.	.	.	.	.	.	.	.
8F#X\	6	.	.	.	.	.	.	.	.	4a\	-gnus	.	.
8D\J	.	.	.	.	.	.	.	.	.	.	.	.	.
*	*	*	*	*	*	*	*	*	*	*	*Xij	*	*
=7	=7	=7	=7	=7	=7	=7	=7	=7	=7	7	=7	=7	=7
8E-/L	.	.	.	2r	.	2r	.	2r	.	8g\L	De-	.	.
8C/	.	.	.	.	.	.	.	.	.	16a\L	.	.	.
.	.	.	.	.	.	.	.	.	.	16b-\JJ	.	.	.
8D/	.	.	.	.	.	.	.	.	.	4f#X/	.	.	.
.	4	.	.	.	.	.	.	.	.	.	.	.	.
8DD/J	3	.	.	.	.	.	.	.	.	.	.	.	.
4GG/	.	.	.	4r	.	4r	.	4r	.	4g/	-i	.	.
4G\	.	.	.	4G\	Qui	4B-\	Qui	4d\	Qui	4r	.	.	.
=8	=8	=8	=8	=8	=8	=8	=8	=8	=8	=8	=8	=8	=8
8F#X\L	6	.	.	4F#X\	tol-	4A\	tol-	4d\	tol-	0r	.	.	.
8En\	.	.	.	.	.	.	.	.	.	.	.	.	.
8F#X\	.	.	.	8F#\	-lis	8A\	-lis	8d\	-lis	.	.	.	.
!	!	!	!	!	!	!	!	!LO:LB:g=original	!	!	!	!	!
8D\J	.	.	.	8D\	pec-	8A\	pec-	8f#X\	pec-	.	.	.	.
8G\L	.	.	.	8G\	-ca-	8B-\	-ca-	8g\	-ca-	.	.	.	.
!LO:SIC:o=8F#\J:v	!	!	!	!LO:TX:a:t=♮	!	!	!	!	!	!	!	!	!
8Fn	.	.	.	8Fny\	-ta	8c\	-ta	8a\	-ta	.	.	.	.
.	7	.	.	.	.	.	.	.	.	.	.	.	.
4E-X/	6	.	.	4E-\	mun-	4B-\	mu(n)-	4g\	mun-	.	.	.	.
=9	=9	=9	=9	=9	=9	=9	=9	=9	=9	=9	=9	=9	=9
4D/	.	.	.	4D\	-di	4A\	-di	4f#X\	-di	.	.	.	.
8GG/L	.	.	.	8GG/	do-	8B-\	do-	8d\	do-	.	.	.	.
8GG/J	.	.	.	8GG/	-na	8B-\	-na	8d\	-na	.	.	.	.
8C/L	.	.	.	(8C/L	e-	4e-\	e-	4g\	e-	.	.	.	.
8D/	.	.	.	8D/	.	.	.	.	.	.	.	.	.
8E-/	.	.	.	8E-/J)	.	4e-\	-is	4g\	-is	.	.	.	.
8C/J	.	.	.	8C/	-is	.	.	.	.	.	.	.	.
=10	=10	=10	=10	=10	=10	=10	=10	=10	=10	=10	=10	=10	=10
!	!	!	!LO:TX:b:t=Verte Cito at agnus	!	!	!LO:TX:a:t=P:problem=adnotacja a przy obydwu dwudźwiękach i to jest właściwa nuta	!	!	!	!	!	!	!
!	!	!	!	!	!	!LO:TX:a:t=a	!	!	!	!	!	!	!
8D/L	.	1r	1r	4.D\	Re-	4.A\ 4.c	Re-	4.f#X\	Re-	1r	.	1r	1r
8C/	.	.	.	.	.	.	.	.	.	.	.	.	.
8D/	.	.	.	.	.	.	.	.	.	.	.	.	.
!	!	!	!	!	!	!LO:TX:a:t=a	!	!	!	!	!	!	!
8DD/J	4	.	.	8D\	-qui-	8A\ 8c	-qui-	8f#\	-qui-	.	.	.	.
.	3	.	.	.	.	.	.	.	.	.	.	.	.
!	!	!	!	!LO:TX:a:i:t=Finis	!	!LO:TX:a:i:t=Finis	!	!	!	!	!	!	!
2GG/	.	.	.	2GG/	-em	2B-\	-em	2g\	-em	.	.	.	.
!LO:LB:g=original	!	!	!LO:LB:g=original	!LO:LB:g=original	!	!LO:LB:g=original	!	!	!	!LO:LB:g=original	!	!	!
=11||	=11||	=11||	=11||	=11||	=11||	=11||	=11||	=11||	=11||	=11||	=11||	=11||	=11||
*M3/4	*	*M3/4	*M3/4	*M3/4	*	*M3/4	*	*M3/4	*	*M3/4	*	*M3/4	*M3/4
!LO:TX:b:i:t=Tutti	!	!	!	!	!	!	!	!	!	!	!	!	!LO:TX:a:i:t=Tutti
!LO:TX:b:t=Agnus	!	!LO:TX:b:t=agnuſ	!LO:TX:b:t=Agnus	!	!	!	!	!	!	!	!	!LO:TX:b:t=Agnus	!LO:TX:b:t=agnus dei.
4C/	.	4cc\	4gg\	2c\	A-	2c\	A-	2g\	A-	2ee-\	A-	2g/	4cc\
4c\	.	4gg\	4ee-\	.	.	.	.	.	.	.	.	.	4ee-\
4C/	.	4ee-\	4gg\	4c\	-gnus	4c\	-gnus	4g\	-gnus	4ee-\	-gnus	4g/	4cc\
=12	=12	=12	=12	=12	=12	=12	=12	=12	=12	=12	=12	=12	=12
4Bn\	6	4gg\	4dd\	4Bn\	De-	4Bn\	De-	4g\	De-	4dd\	De-	4g/	4dd\
!	!	!	!	!	!	!	!	!	!	!	!	!	!LO:TX:a:t=♮
4G\	.	4dd\	4gg\	4G\	-i	4d\	-i	4g\	-i	4dd\	-i	4dd\	4bny\
4B\	6	4gg\	4dd\	4B\	qui	4B\	qui	4g\	qui	4dd\	qui	4g/	4dd\
=13	=13	=13	=13	=13	=13	=13	=13	=13	=13	=13	=13	=13	=13
4c\	.	4gg\	4ee-\	4c\	tol-	4c\	tol-	4g\	tol-	4ee-\	tol-	4cc\	4ee-\
4c\	.	4cc\	4ee-\	4c\	-lis	4c\	-lis	4g\	-lis	4ee-\	-lis	4cc\	4ee-\
4E-\	.	4ee-\	4gg\	4E-\	pec-	4e-\	pec-	4g\	pec-	4ee-\	pec-	4ee-\	4gg\
=14	=14	=14	=14	=14	=14	=14	=14	=14	=14	=14	=14	=14	=14
4G\	6	4b-\	4gg\	4G\	-ca-	4d\	-ca-	4g\	-ca-	4b-\	-ca-	4b-\	4gg\
!	!	!	!LO:TX:a:t=♭	!	!	!	!	!	!	!	!	!	!
4A-X\	.	4cc\	4aa-y\	4A-X\	-ta	(4c\	-ta	(4a-X\	-ta	(4cc\	-ta	4cc\	4aa-X\
!	!	!	!	!	!	!	!	!LO:TX:a:t=P:problem=klamra łukowa nad nutą	!	!	!	!	!
4B-\	.	4dd\	4ff\	4B-X\	.	4B-\)	.	4f\	.	4dd\)	.	4dd\	4ff\
=15	=15	=15	=15	=15	=15	=15	=15	=15	=15	=15	=15	=15	=15
!	!	!	!LO:TX:a:t=♭	!	!	!	!	!	!	!	!	!	!
4A-X\	6	4cc\	4aa-y\	4A-X\	mun-	(2c\	mu(n)-	8a-X\L)	mun-	8ff\L	Mun-	4a-X/	4aa-X\
.	5	.	.	.	.	.	.	8g\J	.	8ee-\J	.	.	.
4B-\	.	4dd\	4.ff\	(4B-\	.	.	.	2f\	-di	2dd\	.	4.f/	4.ff\
.	4	.	.	.	.	.	.	.	.	.	.	.	.
4BB-/	3	4dd\	.	4BB-/)	.	4B-\)	.	.	.	.	.	.	.
.	.	.	8ff\	.	.	.	.	.	.	.	.	8f/	8ff\
!	!	!	!	!	!	!	!	!LO:LB:g=original	!	!	!	!	!LO:LB:g=original
=16	=16	=16	=16	=16	=16	=16	=16	=16	=16	=16	=16	=16	=16
4E-\	.	4ee-\	4gg\	4E-\	-di	4B-\	-di	4g\	di	4ee-\	-di	4g/	4gg\
4r	.	8ee-\L	8gg\L	4r	.	4r	.	4r	.	4r	.	8ee-\L	8gg\L
!	!	!	!LO:TX:a:t=♭	!	!	!	!	!	!	!	!	!	!
.	.	8ff\	8aa-y\	.	.	.	.	.	.	.	.	8ff\	8aa-X\
4r	.	8ee-\	8gg\	4r	.	4r	.	4r	.	4r	.	8ee-\	8gg\
.	.	8dd\J	8ff\J	.	.	.	.	.	.	.	.	8dd\J	8ff\J
!	!	!	!	!LO:TX:a:t=P:problem=brak kreski taktowej	!	!	!	!	!	!	!	!	!
=17	=17	=17	=17	=17-zz	=17	=17	=17	=17	=17	=17	=17	=17	=17
4C/	.	4cc\	4ee-\	4C/	Do-	2c\	Do-	2g\	do-	2ee-\	do-	4cc\	4ee-\
4D/	.	4r	4r	4D/	.	.	.	.	.	.	.	4cc\	4gg\
4E-/	.	4r	4r	4E-/	-na	4c\	-na	4g\	-na	4ee-\	-na	4cc\	4ee-\
!	!	!	!	!	!	!	!	!	!	!	!	!LO:LB:g=original	!
=18	=18	=18	=18	=18	=18	=18	=18	=18	=18	=18	=18	=18	=18
!	!	!	!	!	!	!	!	!	!	!	!	!LO:SIC:o=2a/:v	!
4F\	.	4r	4r	(4F\	e-	2c\	e-	2a-X\	e-	2cc\	e-	2a-	2cc\
!	!	!	!LO:TX:a:t=♭	!	!	!	!	!	!	!	!	!	!
4E-\	.	4cc\	4aa-y\	4E-\	.	.	.	.	.	.	.	.	.
4F\	.	4cc\	4aa-\	4F\)	-is	4c\	-is	4a-\	-is	4cc\	-is	4r	4r
!	!	!LO:LB:g=original	!	!	!	!	!	!	!	!LO:LB:g=original	!	!	!
=19	=19	=19	=19	=19	=19	=19	=19	=19	=19	=19	=19	=19	=19
*	*	*	*	*	*	*	*ij	*	*ij	*	*	*	*
4D\	.	4dd\	4ff\	4D\	do-	2d\	Do-	2f\	do-	2ff\	do-	4r	4r
4E-\	.	4r	4r	(4E-\	-na	.	.	.	.	.	.	4dd\	4ff\
4F\	6	4r	4r	4F\)	.	4d\	-na	4f\	-na	4ff\	-na	4dd\	4ff\
=20	=20	=20	=20	=20	=20	=20	=20	=20	=20	=20	=20	=20	=20
4G\	.	4r	4r	4G\	e-	2d\	e-	2g\	e-	2dd\	e-	2bn\	2dd\
!	!	!LO:TX:a:t=♮	!	!	!	!	!	!	!	!	!	!	!
4F\	.	4bny\	4dd\	(4F\	-is	.	.	.	.	.	.	.	.
4G\	.	4b\	4dd\	4G\)	.	4d\	-is	4g\	-is	4dd\	-is	4r	4r
!LO:LB:g=original	!	!	!	!LO:LB:g=original	!	!LO:LB:g=original	!	!	!	!	!	!	!
=21	=21	=21	=21	=21	=21	=21	=21	=21	=21	=21	=21	=21	=21
*	*	*	*	*	*	*	*	*	*Xij	*	*ij	*	*
4E-\	.	4ee-\	4gg\	4E-\	Do-	2e-\	Do-	2g\	do-	2gg\	do-	4r	4r
4F\	.	4r	4r	(4F\	-na	.	.	.	.	.	.	4ee-\	4gg\
4G\	.	4r	4r	4G\)	.	4e-\	-na	4g\	-na	4gg\	-na	4ee-\	4gg\
!	!	!	!LO:LB:g=original	!	!	!	!	!	!	!	!	!	!
=22	=22	=22	=22	=22	=22	=22	=22	=22	=22	=22	=22	=22	=22
4A-X\	.	4r	4r	4A-X\	e-	2e-\	e-	2a-X\	e-	2ee-\	e-	4cc\	8ee-\L
.	.	.	.	.	.	.	.	.	.	.	.	.	8dd\
8G\L	.	4r	4r	8G\L	-is	.	.	.	.	.	.	4dd\	8ee-\
8F\J	.	.	.	8F\J	.	.	.	.	.	.	.	.	8ff\J
4E-\	.	4ee-\	4gg\	4E-\	.	4e-\	-is	4g\	-is	4ee-\	-is	4ee-\	4gg\
*	*	*	*	*	*	*	*Xij	*	*	*	*Xij	*	*
=23	=23	=23	=23	=23	=23	=23	=23	=23	=23	=23	=23	=23	=23
4F\	.	4cc\	4aa-X\	4F\	re-	4c\	Re-	(4a-X\	Re-	8ff\L	Re-	4cc\	4aa-X\
.	.	.	.	.	.	.	.	.	.	8ee-\J	.	.	.
!	!	!LO:TX:a:t=♮	!	!	!	!	!	!	!	!	!	!	!
4G\	.	4bny\	4.gg\	4.G\	.	4.Bn\	.	4.g\)	.	4.dd\	.	4.g/	4.dd\
4GG/	4	4b\	.	.	.	.	.	.	.	.	.	.	.
.	2	.	8gg\	8G\	-qui-	8B\	-qui-	8g\	-qui-	8cc\	-qui-	8f/	8cc\
=24	=24	=24	=24	=24	=24	=24	=24	=24	=24	=24	=24	=24	=24
4C/	.	4cc\	4gg\	4C/	-em	4c\	-em	4g\	-em	4cc\	-em	4e-/	4cc\
!	!	!	!	!	!	!	!	!	!	!	!	!LO:TX:a:t=♮	!
4G\	.	4dd\	8gg\L	4r	.	4r	.	4r	.	4r	.	4bny\	4dd\
!	!	!	!LO:TX:a:t=♭	!	!	!	!	!	!	!	!	!	!
.	.	.	8aa-y\	.	.	.	.	.	.	.	.	.	.
4GG/	4	4dd\	8gg\	4r	.	4r	.	4r	.	4r	.	4b\	4dd\
.	2	.	8ff\J	.	.	.	.	.	.	.	.	.	.
=25	=25	=25	=25	=25	=25	=25	=25	=25	=25	=25	=25	=25	=25
4C/	.	4cc\	4ee-\	4C/	Do-	2c\	Do-	2g\	do-	2ee-\	do-	4cc\	4ee-\
4D/	.	4r	4r	4D/	.	.	.	.	.	.	.	4cc\	4gg\
4E-/	.	4r	4r	4E-/	-na	4c\	-na	4g\	-na	4ee-\	-na	4cc\	4ee-\
=26	=26	=26	=26	=26	=26	=26	=26	=26	=26	=26	=26	=26	=26
4F\	.	4r	4r	(4F\	e-	2c\	e-	2a-X\	e-	2cc\	e-	2a-X/	2cc\
4E-\	.	4cc\	4aa-X\	4E-\	-is	.	.	.	.	.	.	.	.
4F\	.	4cc\	4aa-\	4F\)	.	4c\	-is	4a-\	-is	4cc\	-is	4r	4r
!	!	!	!	!	!	!	!	!	!	!LO:LB:g=original	!	!	!
=27	=27	=27	=27	=27	=27	=27	=27	=27	=27	=27	=27	=27	=27
*	*	*	*	*	*	*	*ij	*	*ij	*	*ij	*	*
4D\	.	4dd\	4ff\	(4D\	Do-	2d\	Do-	2f\	do-	2ff\	do-	4r	4r
4E-\	.	4r	4r	4E-\	.	.	.	.	.	.	.	4dd\	4ff\
4F\	6	4r	4r	4F\)	-na	4d\	-na	4f\	-na	4ff\	-na	4dd\	4ff\
!	!	!	!	!	!	!	!	!LO:LB:g=original	!	!	!	!LO:LB:g=original	!LO:LB:g=original
=28	=28	=28	=28	=28	=28	=28	=28	=28	=28	=28	=28	=28	=28
4G\	.	4r	4r	4G\	e-	2d\	e-	2g\	e-	2dd\	e-	2bn/	2dd\
!	!	!LO:TX:a:t=♮	!	!	!	!	!	!	!	!	!	!	!
4F\	.	4bny\	4dd\	4F\	.	.	.	.	.	.	.	.	.
4G\	.	4b\	4dd\	4G\	-is	4d\	-is	4g\	-is	4dd\	-is	4r	4r
*	*	*	*	*	*	*	*	*	*Xij	*	*Xij	*	*
=29	=29	=29	=29	=29	=29	=29	=29	=29	=29	=29	=29	=29	=29
4E-\	.	4ee-X\	4gg\	4E-\	do-	2e-\	Do-	2g\	do-	2gg\	do-	4r	4r
4F\	.	4r	4r	4F\	.	.	.	.	.	.	.	4ee-\	4gg\
4G\	.	4r	4r	4G\	-na	4e-\	-na	4g\	-na	4gg\	-na	4ee-\	4gg\
!	!	!LO:LB:g=original	!	!	!	!	!	!	!	!	!	!	!
=30	=30	=30	=30	=30	=30	=30	=30	=30	=30	=30	=30	=30	=30
4A-X\	.	4r	4r	4A-X\	e-	2e-\	e-	2a-X\	e-	2ee-\	e-	4cc\	8ee-\L
.	.	.	.	.	.	.	.	.	.	.	.	.	8dd\
8G\L	.	4r	4r	8G\L	.	.	.	.	.	.	.	4dd\	8ee-\
8F\J	.	.	.	8F\J	.	.	.	.	.	.	.	.	8ff\J
4E-\	.	4ee-\	4gg\	4E-\	-is	4e-\	-is	4g\	-is	4ee-\	-is	4ee-\	4gg\
*	*	*	*	*	*	*	*Xij	*	*	*	*	*	*
!	!	!	!	!	!	!LO:LB:g=original	!	!	!	!	!	!	!
=31	=31	=31	=31	=31	=31	=31	=31	=31	=31	=31	=31	=31	=31
!	!	!	!	!LO:N:vis=4.	!	!	!	!	!	!	!	!	!
4F\	.	4cc\	4aa-X\	4F\	re-	(4c\	Re-	4a-X\	Re-	8ff\L	Re-	4cc\	4aa-X\
.	.	.	.	.	.	.	.	.	.	8ee-\J	.	.	.
!	!	!LO:TX:a:t=♮	!	!	!	!	!	!	!	!	!	!	!
4G\	.	4bny\	4.gg\	4.G\	.	4.Bn\)	.	(4.g\	.	4.dd\	.	4.g/	4.dd\
.	4	.	.	.	.	.	.	.	.	.	.	.	.
4GG/	3	4b\	.	.	.	.	.	.	.	.	.	.	.
!	!	!	!	!LO:LB:g=original	!	!	!	!	!	!LO:TX:a:t=P:problem=8\ chorągiewki skierowane w lewą stronę	!	!	!
.	.	.	8gg\	8G\	-qui-	8B\	-qui-	8g\)	-qui-	8cc\	-qui-	8f/	8cc\
=32	=32	=32	=32	=32	=32	=32	=32	=32	=32	=32	=32	=32	=32
2C/	.	2cc\	2gg\	2C/	-em	2c\	-em	2g\	-em	2cc\	-em	2e-/	2cc\
4r	.	4r	4r	4r	.	4r	.	4r	.	4r	.	4r	4r
!LO:LB:g=original	!	!	!LO:LB:g=original	!	!	!	!	!LO:TX:a:t=tarde	!	!	!	!	!
=33||	=33||	=33||	=33||	=33||	=33||	=33||	=33||	=33||	=33||	=33||	=33||	=33||	=33||
*M2/2	*	*M2/2	*M2/2	*M2/2	*	*M2/2	*	*M2/2	*	*M2/2	*	*M2/2	*M2/2
*met(c|)	*	*met(c|)	*met(c|)	*met(c|)	*	*met(c|)	*	*met(c|)	*	*met(c|)	*	*met(c|)	*met(c|)
!LO:TX:a:t=Tarde	!	!	!	!	!	!	!	!	!	!	!	!	!LO:TX:a:t=tarde
!LO:TX:b:t=Dona eis Requiem.	!	!LO:TX:b:t=Dona nobis Requiem.	!LO:TX:b:t=Dona eis Requiem.	!	!	!	!	!	!	!	!	!LO:TX:b:t=dona nobis Requiem.	!LO:TX:b:t=dona eis Requiem.
8F\L	.	8cc\L	8aa-X\L	8F\	Do-	8f\	Do-	8a-X\	Do-	8a\	Do-	8a-X/L	8cc\L
8F\	.	8cc\	8aa-\	8F\	-na	8f\	-na	8a-\	-na	8a\	-na	8a-/	8cc\
8E-\	.	8cc\	8gg\	8E-\	e-	8e-\	e-	8g\	e-	8a\	e-	8g/	8cc\
8F\J	.	8cc\J	8aa-\J	8F\	-is	8f\	-is	8a-\	-is	8a\	-is	8a-/J	8cc\J
!	!	!	!	!	!	!	!LO:MO:mod=Re-	!	!	!	!	!	!
2G\	.	2bn\	4.gg\	4.G\	Re-	4.d\	Rae-	4.g\	Re-	4.dd\	Re-	4.g/	2dd\
.	.	.	8gg\	8G\	-qui-	8d\	-qui-	8g\	-qui-	8dd\	-qui-	8f/	.
=34	=34	=34	=34	=34	=34	=34	=34	=34	=34	=34	=34	=34	=34
!	!	!LO:TX:b:t=Lau Daeo	!	!	!	!	!	!LO:TX:b:t=ʃempiternam	!	!	!	!LO:TX:a:t=P:problem=podwójna kreska z obustronną repetycją	!
!	!	!LO:TX:b:t=Laus Deo	!LO:TX:b:t=Laus Deo	!LO:TX:b:t=Laus Deo	!	!LO:TX:b:t=Laus Deo	!	!LO:TX:a:t=P:problem=podwójna kreska z obustronną repetycją	!	!	!	!LO:TX:b:t=Laus Deo	!LO:TX:b:t=Amen
1C	.	1cc	1gg	1C	-em	1c	-em	1g	-em	1cc	-em	1e-	1cc
==	==	==	==	==	==	==	==	==	==	==	==	==	==
*-	*-	*-	*-	*-	*-	*-	*-	*-	*-	*-	*-	*-	*-
!!!system-decoration: [(g1)][(g2)][(g3)][(g4)]
!!!ENC: Anna Matuszewska
!!!END: 2020-12-03
!!!ENC: Andrzej Borzym
!!!END: 2020-04-29
